X:295
T:Methodist Preacher
C:Bill Monroe
N:Arr. Baldassri
R:bluegrass
L:1/8
Q:1/4=215
M:4/4
K:C
"G"ab bb b2 b2 | ab ag eg g2 | _b=b ba g2 ga | "D"ge dB "G"AG3 | ab bb b2 b2 | 
ab ag eg g2 | bg ag e^f ga | "D"ge dB "G"AG G2 | [g2B2D2G,2] e^f g2 ef | g2 e^f g2 (3DE^F | 
G2 [g4B4D4G,4] [g2B2D2G,2] | "D"ge dB "G"AG G2 |: "G"GB z2 d4 | de dB AG3 | D^F GA Bd e^f | 
"D"ge dB "G"AG z2 :| "G"D^F GB A2 G2 | D^F GB AG3 | "G"D^F GA Bd e^f | "D"ge dB "G"AG3 | 
D^F GB A2 G2 | "G"D^F GB AG z2 | D^F GA Bd e^f | "D"ge dB "G"A2 G2 | 


